symbolic/48x48/apps/appimagekit-vieb.svg

<svg xmlns="http://www.w3.org/2000/svg" width="48" height="48" version="1">
 <path style="opacity:0.2" d="M 23.999,4 C 22.899,4 21.799,4.41 20.976,5.2323 L 4.2323,21.978 C 2.5876,23.623 2.59,26.375 4.2347,28.02 L 20.979,44.765 C 22.623,46.41 25.378,46.412 27.023,44.768 L 43.767,28.022 C 45.411,26.377 45.411,23.623 43.767,21.978 L 27.023,5.2323 C 26.2,4.41 25.099,4 23.999,4 Z"/>
 <path style="fill:#a42a2a" d="M 23.999,3 C 22.899,3 21.799,3.41 20.976,4.2323 L 4.2323,20.978 C 2.5876,22.623 2.59,25.375 4.2347,27.02 L 20.979,43.765 C 22.623,45.41 25.378,45.412 27.023,43.768 L 43.767,27.022 C 45.411,25.377 45.411,22.623 43.767,20.978 L 27.023,4.2323 C 26.2,3.41 25.099,3 23.999,3 Z"/>
 <path style="opacity:0.2;fill:#f4f4f7" d="M 24,3 C 22.9,3 21.799,3.4101 20.977,4.2324 L 4.2324,20.979 C 3.2863,21.925 2.9037,23.235 3.0469,24.492 3.1538,23.568 3.5372,22.674 4.2324,21.979 L 20.977,5.2324 C 21.799,4.4101 22.9,4 24,4 25.1,4 26.201,4.4101 27.023,5.2324 L 43.766,21.979 C 44.463,22.675 44.847,23.573 44.953,24.5 45.098,23.24 44.713,21.926 43.766,20.979 L 27.023,4.2324 C 26.201,3.4101 25.1,3 24,3 Z"/>
 <path style="opacity:0.2" d="M 7,9 C 5.892,9 5,9.892 5,11 5,12.108 5.892,13.008 7,13 H 8 V 36.992 C 8.0007,40.524 12.243,42.322 14.781,39.867 L 42.684,12.873 C 43.451,12.594 44,11.866 44,11 44,9.892 43.108,9 42,9 H 32 C 30.892,9 30,9.892 30,11 30,11.828 30.5,12.535 31.215,12.84 L 16,27.555 V 13 H 17 C 18.108,13 19,12.108 19,11 19,9.892 18.108,9 17,9 Z"/>
 <path style="fill:#b2bfd9" d="M 7,8 C 5.892,8 5,8.892 5,10 5,11.108 5.892,12 7,12 H 8 V 36 C 8.0007,39.531 12.243,41.33 14.781,38.875 L 42.684,11.873 C 43.451,11.594 44,10.866 44,10 44,8.892 43.108,8 42,8 H 32 C 30.892,8 30,8.892 30,10 30,10.828 30.5,11.535 31.215,11.84 L 16,26.562 V 12 H 17 C 18.108,12 19,11.108 19,10 19,8.892 18.108,8 17,8 Z"/>
 <path style="opacity:0.1;fill:#f4f4f7" d="M 7,8 C 5.892,8 5,8.892 5,10 5,10.172 5.0278,10.337 5.0684,10.496 5.2888,9.631 6.0643,8.9922 7,8.9922 H 17 C 17.936,8.9922 18.711,9.631 18.932,10.496 18.972,10.337 19,10.172 19,10 19,8.892 18.108,8 17,8 Z M 32,8 C 30.892,8 30,8.892 30,10 30,10.168 30.033,10.327 30.072,10.482 30.298,9.6244 31.069,8.9922 32,8.9922 H 42 C 42.936,8.9922 43.712,9.632 43.932,10.498 43.973,10.339 44,10.173 44,10 44,8.892 43.108,8 42,8 Z M 30.617,12.418 16,26.562 V 27.555 L 31.215,12.832 C 30.987,12.735 30.792,12.587 30.617,12.418 Z"/>
</svg>

<svg xmlns="http://www.w3.org/2000/svg" width="48" height="48" version="1"><path style="opacity:.2" d="M23.999 4c-1.1 0-2.2.41-3.023 1.232L4.232 21.978c-1.644 1.645-1.642 4.397.003 6.042l16.744 16.745c1.644 1.645 4.399 1.647 6.044.003l16.744-16.746c1.644-1.645 1.644-4.399 0-6.044L27.023 5.232A4.266 4.266 0 0 0 23.999 4z"/><path style="fill:#a42a2a" d="M23.999 3c-1.1 0-2.2.41-3.023 1.232L4.232 20.978c-1.644 1.645-1.642 4.397.003 6.042l16.744 16.745c1.644 1.645 4.399 1.647 6.044.003l16.744-16.746c1.644-1.645 1.644-4.399 0-6.044L27.023 4.232A4.266 4.266 0 0 0 23.999 3z"/><path style="opacity:.2;fill:#f4f4f7" d="M24 3c-1.1 0-2.201.41-3.023 1.232L4.232 20.98c-.946.946-1.328 2.256-1.185 3.513.107-.924.49-1.818 1.185-2.513L20.977 5.232A4.262 4.262 0 0 1 24 4c1.1 0 2.201.41 3.023 1.232L43.766 21.98c.697.696 1.081 1.594 1.187 2.521.145-1.26-.24-2.574-1.187-3.521L27.023 4.232A4.262 4.262 0 0 0 24 3z"/><path style="opacity:.2" d="M7 9c-1.108 0-2 .892-2 2a1.99 1.99 0 0 0 2 2h1v23.992c0 3.532 4.243 5.33 6.781 2.875l27.903-26.994A1.996 1.996 0 0 0 42 9H32c-1.108 0-2 .892-2 2 0 .828.5 1.535 1.215 1.84L16 27.555V13h1c1.108 0 2-.892 2-2s-.892-2-2-2z"/><path style="fill:#b2bfd9" d="M7 8c-1.108 0-2 .892-2 2s.892 2 2 2h1v24c0 3.531 4.243 5.33 6.781 2.875l27.903-27.002A1.996 1.996 0 0 0 42 8H32c-1.108 0-2 .892-2 2 0 .828.5 1.535 1.215 1.84L16 26.562V12h1c1.108 0 2-.892 2-2s-.892-2-2-2z"/><path style="opacity:.1;fill:#f4f4f7" d="M7 8c-1.108 0-2 .892-2 2 0 .172.028.337.068.496A1.99 1.99 0 0 1 7 8.992h10c.936 0 1.711.639 1.932 1.504.04-.159.068-.324.068-.496 0-1.108-.892-2-2-2zm25 0c-1.108 0-2 .892-2 2 0 .168.033.327.072.482A1.991 1.991 0 0 1 32 8.992h10c.936 0 1.712.64 1.932 1.506.041-.159.068-.325.068-.498 0-1.108-.892-2-2-2zm-1.383 4.418L16 26.562v.993l15.215-14.723a1.99 1.99 0 0 1-.598-.414z"/></svg>
